public/images/poses-lg/Lotus.svg

<svg width="800" height="800" fill="none" xmlns="http://www.w3.org/2000/svg"><path d="M215.709 728.379c1.829 3.658 5.123 6.219 8.416 7.974 5.989 3.196 12.941 3.988 19.618 2.765 4.897-.898 11.533-2.77 19.663-6.58 11.384-5.34 38.027-35.615 57.02-58.345 13.702-16.396 17.891-29.878 21.06-51.009l9.147-64.031s32.017-29.729 6.861-45.737c0 0-22.869 4.574-29.729 13.721-13.513 18.018-18.295 100.621-20.581 107.482-1.953 5.853-27.209 49.996-41.685 68.509-3.409 4.366-9.959 11.848-15.486 11.531-8.663-.496-20.682-6.065-25.155-4.573-.001-.002-16.009 4.572-9.149 18.293Z" fill="#fff" stroke="#000" stroke-width="5" stroke-miterlimit="10"/><path d="M215.709 728.379c1.829 3.658 5.123 6.219 8.416 7.974 5.989 3.196 12.941 3.988 19.618 2.765 4.897-.898 11.533-2.77 19.663-6.58 11.384-5.34 38.027-35.615 57.02-58.345 13.702-16.396 17.891-29.878 21.06-51.009l9.147-64.031s32.017-29.729 6.861-45.737c0 0-22.869 4.574-29.729 13.721-13.513 18.018-18.295 100.621-20.581 107.482-1.953 5.853-27.209 49.996-41.685 68.509-3.409 4.366-9.959 11.848-15.486 11.531-8.663-.496-20.682-6.065-25.155-4.573-.001-.002-16.009 4.572-9.149 18.293Z" stroke="#000" stroke-width="5" stroke-miterlimit="10"/><path d="M583.891 728.379c-1.829 3.658-5.123 6.219-8.415 7.974-5.989 3.196-12.942 3.988-19.619 2.765-4.897-.898-11.533-2.77-19.664-6.58-11.383-5.34-38.028-35.615-57.019-58.345-13.701-16.396-17.888-29.878-21.059-51.009l-9.147-64.031s-32.016-29.729-6.86-45.737c0 0 22.867 4.574 29.729 13.721 13.513 18.018 18.294 100.621 20.582 107.482 1.951 5.853 27.21 49.996 41.685 68.509 3.408 4.366 9.957 11.848 15.485 11.531 8.661-.496 20.683-6.065 25.156-4.573-.001-.002 16.006 4.572 9.146 18.293Z" fill="#fff" stroke="#000" stroke-width="5" stroke-miterlimit="10"/><path d="M583.891 728.379c-1.829 3.658-5.123 6.219-8.415 7.974-5.989 3.196-12.942 3.988-19.619 2.765-4.897-.898-11.533-2.77-19.664-6.58-11.383-5.34-38.028-35.615-57.019-58.345-13.701-16.396-17.888-29.878-21.059-51.009l-9.147-64.031s-32.016-29.729-6.86-45.737c0 0 22.867 4.574 29.729 13.721 13.513 18.018 18.294 100.621 20.582 107.482 1.951 5.853 27.21 49.996 41.685 68.509 3.408 4.366 9.957 11.848 15.485 11.531 8.661-.496 20.683-6.065 25.156-4.573-.001-.002 16.006 4.572 9.146 18.293Z" stroke="#000" stroke-width="5" stroke-miterlimit="10"/><path d="M467.088 698.65c-4.574-11.434-18.295-43.451-18.295-43.451l-44.725 8.132a24.264 24.264 0 0 1-8.707 0l-44.727-8.132s-13.721 32.017-18.294 43.451c-4.574 11.435-98.335 32.016-96.048 66.319 2.287 34.302 48.024 32.016 70.892 27.442 18.273-3.656 63.217-30.408 91.473-43.451 28.254 13.043 75.313 39.795 93.586 43.451 22.868 4.573 68.605 6.86 70.892-27.442 2.287-34.303-91.473-54.884-96.047-66.319Z" fill="#fff" stroke="#000" stroke-width="5" stroke-miterlimit="10"/><path d="M467.088 698.65c-4.574-11.434-18.295-43.451-18.295-43.451l-44.725 8.132a24.264 24.264 0 0 1-8.707 0l-44.727-8.132s-13.721 32.017-18.294 43.451c-4.574 11.435-98.335 32.016-96.048 66.319 2.287 34.302 48.024 32.016 70.892 27.442 18.273-3.656 63.217-30.408 91.473-43.451 28.254 13.043 75.313 39.795 93.586 43.451 22.868 4.573 68.605 6.86 70.892-27.442 2.287-34.303-91.473-54.884-96.047-66.319Z" stroke="#000" stroke-width="5" stroke-miterlimit="10"/><path d="M448.211 558.684c-8.445-24.624-4.246-45.862-4.246-45.862s-9.733-2.58-20.99-11.374c-11.256-8.795-8.445-38.464-8.445-38.464s-.584.121-14.302.121c-13.719 0-14.441-.121-14.441-.121s2.947 29.669-8.309 38.464c-11.258 8.794-20.987 11.374-20.987 11.374s4.197 21.238-4.246 45.862c0 0 8.942 52.193-1.613 96.516 0 0 21.101 8.763 49.595 8.763 28.493 0 48.74-8.763 48.74-8.763-10.554-44.323-.756-96.516-.756-96.516Z" fill="#fff" stroke="#000" stroke-width="5" stroke-miterlimit="10"/><path d="M448.211 558.684c-8.445-24.624-4.246-45.862-4.246-45.862s-9.733-2.58-20.99-11.374c-11.256-8.795-8.445-38.464-8.445-38.464s-.584.121-14.302.121c-13.719 0-14.441-.121-14.441-.121s2.947 29.669-8.309 38.464c-11.258 8.794-20.987 11.374-20.987 11.374s4.197 21.238-4.246 45.862c0 0 8.942 52.193-1.613 96.516 0 0 21.101 8.763 49.595 8.763 28.493 0 48.74-8.763 48.74-8.763-10.554-44.323-.756-96.516-.756-96.516Z" stroke="#000" stroke-width="5" stroke-miterlimit="10"/><path d="M375.18 401.64c-16.5 34.205 9.548 75.285 24.533 75.483 14.986.197 42.107-40.184 26.514-74.811-9.83-21.826-40.646-22.232-51.047-.672Z" fill="#fff" stroke="#000" stroke-width="5" stroke-miterlimit="10"/><path d="M375.18 401.64c-16.5 34.205 9.548 75.285 24.533 75.483 14.986.197 42.107-40.184 26.514-74.811-9.83-21.826-40.646-22.232-51.047-.672Z" stroke="#000" stroke-width="5" stroke-miterlimit="10"/><path d="M496.924 442.823c-13.153-7.225-9.817-16.49-21.492-25.754-11.672-9.263-26.133-3.008-32.24-17.976-6.053-14.828-25.762-23.297-42.938-23.089h-.053c-17.177-.208-36.889 8.261-42.937 23.089-6.108 14.968-20.569 8.712-32.24 17.976-11.675 9.264-8.338 18.529-21.494 25.754-13.157 7.227-14.227 6.559-13.712 12.231.758 8.366 30.675 5.056 53.114 5.63 4.395.112 20.414 4.565 24.698 5.568 8.761 2.052 20.014 1.762 20.247-1.378.373-5.005-1.232-16.905-4.646-22.995-3.413-6.092-10.463-4.127-10.463-13.065 0-8.336 3.423-5.092 11.297-12.506 6.941-6.54 13.891-14.11 16.162-20.26 2.271 6.15 9.221 13.721 16.161 20.26 7.875 7.414 11.298 4.169 11.298 12.506 0 8.938-7.049 6.972-10.463 13.065-3.414 6.09-5.016 17.99-4.644 22.995.232 3.14 11.486 3.43 20.246 1.378 4.283-1.003 20.3-5.456 24.7-5.568 22.435-.574 52.351 2.736 53.11-5.63.517-5.672-.552-5.004-13.711-12.231Z" fill="#100200" stroke="#000" stroke-width="5" stroke-miterlimit="10"/><path d="M367.701 508.127s12.217 18.389 32.7 18.389c20.483 0 32.7-18.389 32.7-18.389" stroke="#000" stroke-width="5" stroke-miterlimit="10"/><path d="M503.852 753.586s-12.989-14.537-59.458-20.633c11.939-4.013 30.85-10.433 38.875-13.441 25.156-9.465 16.008-9.465 16.008-9.465-6.861-3.787-38.876 3.43-59.458-2.248-20.582-5.679-25.156-.712-27.442 6.861-.846 2.783-7.959 3.432-11.434 4.853-2.196-2.046-12.835-3.56-20.582-4.853-13.721-2.288-28.4-8.849-34.906-12.706-1.509-.895-3.379-1.135-4.976-.416-2.196.988-3.568 3.587 3.293 10.401 3.613 3.595 10.428 8.519 18.066 13.573-42.924 5.451-68.377 18.61-68.377 18.61" fill="#fff"/><path d="M503.852 753.586s-12.989-14.537-59.458-20.633c11.939-4.013 30.85-10.433 38.875-13.441 25.156-9.465 16.008-9.465 16.008-9.465-6.861-3.787-38.876 3.43-59.458-2.248-20.582-5.679-25.156-.712-27.442 6.861-.846 2.783-7.959 3.432-11.434 4.853-2.196-2.046-12.835-3.56-20.582-4.853-13.721-2.288-28.4-8.849-34.906-12.706-1.509-.895-3.379-1.135-4.976-.416-2.196.988-3.568 3.587 3.293 10.401 3.613 3.595 10.428 8.519 18.066 13.573-42.924 5.451-68.377 18.61-68.377 18.61" stroke="#000" stroke-width="5" stroke-miterlimit="10"/><path d="M503.852 753.586s-12.989-14.537-59.458-20.633c11.939-4.013 30.85-10.433 38.875-13.441 25.156-9.465 16.008-9.465 16.008-9.465-6.861-3.787-38.876 3.43-59.458-2.248-20.582-5.679-25.156-.712-27.442 6.861-.846 2.783-7.959 3.432-11.434 4.853-2.196-2.046-12.835-3.56-20.582-4.853-13.721-2.288-28.4-8.849-34.906-12.706-1.509-.895-3.379-1.135-4.976-.416-2.196.988-3.568 3.587 3.293 10.401 3.613 3.595 10.428 8.519 18.066 13.573-42.924 5.451-68.377 18.61-68.377 18.61" stroke="#000" stroke-width="5" stroke-miterlimit="10"/><path d="M362.067 725.19c16.008 1.894 38.876-5.678 38.876-5.678s9.35 18.986 22.972 20.786" fill="#fff"/><path d="M362.067 725.19c16.008 1.894 38.876-5.678 38.876-5.678s9.35 18.986 22.972 20.786" stroke="#000" stroke-width="5" stroke-miterlimit="10"/><path d="M362.067 725.19c16.008 1.894 38.876-5.678 38.876-5.678s9.35 18.986 22.972 20.786" stroke="#000" stroke-width="5" stroke-miterlimit="10" stroke-linecap="square"/><path d="m396.574 749.932 54.68-19.266M396.574 749.932l54.68-19.266" stroke="#000" stroke-width="5" stroke-miterlimit="10"/></svg>

<svg width="800" height="800" viewBox="0 0 800 800" fill="none" xmlns="http://www.w3.org/2000/svg">
<path d="M215.709 728.379C217.538 732.037 220.832 734.598 224.125 736.353C230.114 739.549 237.066 740.341 243.743 739.118C248.64 738.22 255.276 736.348 263.406 732.538C274.79 727.198 301.433 696.923 320.426 674.193C334.128 657.797 338.317 644.315 341.486 623.184L350.633 559.153C350.633 559.153 382.65 529.424 357.494 513.416C357.494 513.416 334.625 517.99 327.765 527.137C314.252 545.155 309.47 627.758 307.184 634.619C305.231 640.472 279.975 684.615 265.499 703.128C262.09 707.494 255.54 714.976 250.013 714.659C241.35 714.163 229.331 708.594 224.858 710.086C224.857 710.084 208.849 714.658 215.709 728.379Z" fill="white" stroke="black" stroke-width="5" stroke-miterlimit="10"/>
<path d="M215.709 728.379C217.538 732.037 220.832 734.598 224.125 736.353C230.114 739.549 237.066 740.341 243.743 739.118C248.64 738.22 255.276 736.348 263.406 732.538C274.79 727.198 301.433 696.923 320.426 674.193C334.128 657.797 338.317 644.315 341.486 623.184L350.633 559.153C350.633 559.153 382.65 529.424 357.494 513.416C357.494 513.416 334.625 517.99 327.765 527.137C314.252 545.155 309.47 627.758 307.184 634.619C305.231 640.472 279.975 684.615 265.499 703.128C262.09 707.494 255.54 714.976 250.013 714.659C241.35 714.163 229.331 708.594 224.858 710.086C224.857 710.084 208.849 714.658 215.709 728.379Z" stroke="black" stroke-width="5" stroke-miterlimit="10"/>
<path d="M583.891 728.379C582.062 732.037 578.768 734.598 575.476 736.353C569.487 739.549 562.534 740.341 555.857 739.118C550.96 738.22 544.324 736.348 536.193 732.538C524.81 727.198 498.165 696.923 479.174 674.193C465.473 657.797 461.286 644.315 458.115 623.184L448.968 559.153C448.968 559.153 416.952 529.424 442.108 513.416C442.108 513.416 464.975 517.99 471.837 527.137C485.35 545.155 490.131 627.758 492.419 634.619C494.37 640.472 519.629 684.615 534.104 703.128C537.512 707.494 544.061 714.976 549.589 714.659C558.25 714.163 570.272 708.594 574.745 710.086C574.744 710.084 590.751 714.658 583.891 728.379Z" fill="white" stroke="black" stroke-width="5" stroke-miterlimit="10"/>
<path d="M583.891 728.379C582.062 732.037 578.768 734.598 575.476 736.353C569.487 739.549 562.534 740.341 555.857 739.118C550.96 738.22 544.324 736.348 536.193 732.538C524.81 727.198 498.165 696.923 479.174 674.193C465.473 657.797 461.286 644.315 458.115 623.184L448.968 559.153C448.968 559.153 416.952 529.424 442.108 513.416C442.108 513.416 464.975 517.99 471.837 527.137C485.35 545.155 490.131 627.758 492.419 634.619C494.37 640.472 519.629 684.615 534.104 703.128C537.512 707.494 544.061 714.976 549.589 714.659C558.25 714.163 570.272 708.594 574.745 710.086C574.744 710.084 590.751 714.658 583.891 728.379Z" stroke="black" stroke-width="5" stroke-miterlimit="10"/>
<path d="M467.088 698.65C462.514 687.216 448.793 655.199 448.793 655.199L404.068 663.331C401.19 663.856 398.239 663.856 395.361 663.331L350.634 655.199C350.634 655.199 336.913 687.216 332.34 698.65C327.766 710.085 234.005 730.666 236.292 764.969C238.579 799.271 284.316 796.985 307.184 792.411C325.457 788.755 370.401 762.003 398.657 748.96C426.911 762.003 473.97 788.755 492.243 792.411C515.111 796.984 560.848 799.271 563.135 764.969C565.422 730.666 471.662 710.085 467.088 698.65Z" fill="white" stroke="black" stroke-width="5" stroke-miterlimit="10"/>
<path d="M467.088 698.65C462.514 687.216 448.793 655.199 448.793 655.199L404.068 663.331C401.19 663.856 398.239 663.856 395.361 663.331L350.634 655.199C350.634 655.199 336.913 687.216 332.34 698.65C327.766 710.085 234.005 730.666 236.292 764.969C238.579 799.271 284.316 796.985 307.184 792.411C325.457 788.755 370.401 762.003 398.657 748.96C426.911 762.003 473.97 788.755 492.243 792.411C515.111 796.984 560.848 799.271 563.135 764.969C565.422 730.666 471.662 710.085 467.088 698.65Z" stroke="black" stroke-width="5" stroke-miterlimit="10"/>
<path d="M448.211 558.684C439.766 534.06 443.965 512.822 443.965 512.822C443.965 512.822 434.232 510.242 422.975 501.448C411.719 492.653 414.53 462.984 414.53 462.984C414.53 462.984 413.946 463.105 400.228 463.105C386.509 463.105 385.787 462.984 385.787 462.984C385.787 462.984 388.734 492.653 377.478 501.448C366.22 510.242 356.491 512.822 356.491 512.822C356.491 512.822 360.688 534.06 352.245 558.684C352.245 558.684 361.187 610.877 350.632 655.2C350.632 655.2 371.733 663.963 400.227 663.963C428.72 663.963 448.967 655.2 448.967 655.2C438.413 610.877 448.211 558.684 448.211 558.684Z" fill="white" stroke="black" stroke-width="5" stroke-miterlimit="10"/>
<path d="M448.211 558.684C439.766 534.06 443.965 512.822 443.965 512.822C443.965 512.822 434.232 510.242 422.975 501.448C411.719 492.653 414.53 462.984 414.53 462.984C414.53 462.984 413.946 463.105 400.228 463.105C386.509 463.105 385.787 462.984 385.787 462.984C385.787 462.984 388.734 492.653 377.478 501.448C366.22 510.242 356.491 512.822 356.491 512.822C356.491 512.822 360.688 534.06 352.245 558.684C352.245 558.684 361.187 610.877 350.632 655.2C350.632 655.2 371.733 663.963 400.227 663.963C428.72 663.963 448.967 655.2 448.967 655.2C438.413 610.877 448.211 558.684 448.211 558.684Z" stroke="black" stroke-width="5" stroke-miterlimit="10"/>
<path d="M375.18 401.64C358.68 435.845 384.728 476.925 399.713 477.123C414.699 477.32 441.82 436.939 426.227 402.312C416.397 380.486 385.581 380.08 375.18 401.64Z" fill="white" stroke="black" stroke-width="5" stroke-miterlimit="10"/>
<path d="M375.18 401.64C358.68 435.845 384.728 476.925 399.713 477.123C414.699 477.32 441.82 436.939 426.227 402.312C416.397 380.486 385.581 380.08 375.18 401.64Z" stroke="black" stroke-width="5" stroke-miterlimit="10"/>
<path d="M496.924 442.823C483.771 435.598 487.107 426.333 475.432 417.069C463.76 407.806 449.299 414.061 443.192 399.093C437.139 384.265 417.43 375.796 400.254 376.004H400.227H400.201C383.024 375.796 363.312 384.265 357.264 399.093C351.156 414.061 336.695 407.805 325.024 417.069C313.349 426.333 316.686 435.598 303.53 442.823C290.373 450.05 289.303 449.382 289.818 455.054C290.576 463.42 320.493 460.11 342.932 460.684C347.327 460.796 363.346 465.249 367.63 466.252C376.391 468.304 387.644 468.014 387.877 464.874C388.25 459.869 386.645 447.969 383.231 441.879C379.818 435.787 372.768 437.752 372.768 428.814C372.768 420.478 376.191 423.722 384.065 416.308C391.006 409.768 397.956 402.198 400.227 396.048C402.498 402.198 409.448 409.769 416.388 416.308C424.263 423.722 427.686 420.477 427.686 428.814C427.686 437.752 420.637 435.786 417.223 441.879C413.809 447.969 412.207 459.869 412.579 464.874C412.811 468.014 424.065 468.304 432.825 466.252C437.108 465.249 453.125 460.796 457.525 460.684C479.96 460.11 509.876 463.42 510.635 455.054C511.152 449.382 510.083 450.05 496.924 442.823Z" fill="#100200" stroke="black" stroke-width="5" stroke-miterlimit="10"/>
<path d="M367.701 508.127C367.701 508.127 379.918 526.516 400.401 526.516C420.884 526.516 433.101 508.127 433.101 508.127" stroke="black" stroke-width="5" stroke-miterlimit="10"/>
<path d="M503.852 753.586C503.852 753.586 490.863 739.049 444.394 732.953C456.333 728.94 475.244 722.52 483.269 719.512C508.425 710.047 499.277 710.047 499.277 710.047C492.416 706.26 460.401 713.477 439.819 707.799C419.237 702.12 414.663 707.087 412.377 714.66C411.531 717.443 404.418 718.092 400.943 719.513C398.747 717.467 388.108 715.953 380.361 714.66C366.64 712.372 351.961 705.811 345.455 701.954C343.946 701.059 342.076 700.819 340.479 701.538C338.283 702.526 336.911 705.125 343.772 711.939C347.385 715.534 354.2 720.458 361.838 725.512C318.914 730.963 293.461 744.122 293.461 744.122" fill="white"/>
<path d="M503.852 753.586C503.852 753.586 490.863 739.049 444.394 732.953C456.333 728.94 475.244 722.52 483.269 719.512C508.425 710.047 499.277 710.047 499.277 710.047C492.416 706.26 460.401 713.477 439.819 707.799C419.237 702.12 414.663 707.087 412.377 714.66C411.531 717.443 404.418 718.092 400.943 719.513C398.747 717.467 388.108 715.953 380.361 714.66C366.64 712.372 351.961 705.811 345.455 701.954C343.946 701.059 342.076 700.819 340.479 701.538C338.283 702.526 336.911 705.125 343.772 711.939C347.385 715.534 354.2 720.458 361.838 725.512C318.914 730.963 293.461 744.122 293.461 744.122" stroke="black" stroke-width="5" stroke-miterlimit="10"/>
<path d="M503.852 753.586C503.852 753.586 490.863 739.049 444.394 732.953C456.333 728.94 475.244 722.52 483.269 719.512C508.425 710.047 499.277 710.047 499.277 710.047C492.416 706.26 460.401 713.477 439.819 707.799C419.237 702.12 414.663 707.087 412.377 714.66C411.531 717.443 404.418 718.092 400.943 719.513C398.747 717.467 388.108 715.953 380.361 714.66C366.64 712.372 351.961 705.811 345.455 701.954C343.946 701.059 342.076 700.819 340.479 701.538C338.283 702.526 336.911 705.125 343.772 711.939C347.385 715.534 354.2 720.458 361.838 725.512C318.914 730.963 293.461 744.122 293.461 744.122" stroke="black" stroke-width="5" stroke-miterlimit="10"/>
<path d="M362.067 725.19C378.075 727.084 400.943 719.512 400.943 719.512C400.943 719.512 410.293 738.498 423.915 740.298" fill="white"/>
<path d="M362.067 725.19C378.075 727.084 400.943 719.512 400.943 719.512C400.943 719.512 410.293 738.498 423.915 740.298" stroke="black" stroke-width="5" stroke-miterlimit="10"/>
<path d="M362.067 725.19C378.075 727.084 400.943 719.512 400.943 719.512C400.943 719.512 410.293 738.498 423.915 740.298" stroke="black" stroke-width="5" stroke-miterlimit="10" stroke-linecap="square"/>
<path d="M396.574 749.932L451.254 730.666" stroke="black" stroke-width="5" stroke-miterlimit="10"/>
<path d="M396.574 749.932L451.254 730.666" stroke="black" stroke-width="5" stroke-miterlimit="10"/>
</svg>
